ui/src/assets/icons/duplicate.svg

<svg xmlns="http://www.w3.org/2000/svg" viewBox="0 0 14 16">
    <g fill="#302C71" fill-rule="nonzero">
        <path d="M10.21.5H.5v15h13V3.79L10.21.5zm.29 1.71l1.29 1.29H10.5V2.21zm2 12.29h-11v-13h8v3h3v10z"/>
        <path d="M7.5 5.5h-1v2h-2v1h2v2h1v-2h2v-1h-2z"/>
    </g>
</svg>

<?xml version="1.0" encoding="UTF-8"?>
<svg width="14px" height="16px" viewBox="0 0 14 16" version="1.1" xmlns="http://www.w3.org/2000/svg" xmlns:xlink="http://www.w3.org/1999/xlink">
    <!-- Generator: Sketch 48.2 (47327) - http://www.bohemiancoding.com/sketch -->
    <title>File-new</title>
    <desc>Created with Sketch.</desc>
    <defs></defs>
    <g id="Brand-styles" stroke="none" stroke-width="1" fill="none" fill-rule="evenodd" transform="translate(-923.000000, -3219.000000)">
        <g id="File-new" transform="translate(923.000000, 3219.000000)" fill="#302C71" fill-rule="nonzero">
            <path d="M10.21,0.5 L0.5,0.5 L0.5,15.5 L13.5,15.5 L13.5,3.79 L10.21,0.5 Z M10.5,2.21 L11.79,3.5 L10.5,3.5 L10.5,2.21 Z M12.5,14.5 L1.5,14.5 L1.5,1.5 L9.5,1.5 L9.5,4.5 L12.5,4.5 L12.5,14.5 Z" id="Shape"></path>
            <polygon id="Shape" points="7.5 5.5 6.5 5.5 6.5 7.5 4.5 7.5 4.5 8.5 6.5 8.5 6.5 10.5 7.5 10.5 7.5 8.5 9.5 8.5 9.5 7.5 7.5 7.5"></polygon>
        </g>
    </g>
</svg>
